src/baseIcons/icon-map-route.svg

<?xml version="1.0" encoding="UTF-8"?>
<svg  viewBox="0 0 24 24" version="1.1" xmlns="http://www.w3.org/2000/svg" xmlns:xlink="http://www.w3.org/1999/xlink">
    <title>Icons/Basic icons/map-route</title>
    <g  id="Icons/Basic-icons/map-route" stroke="none" stroke-width="1" fill="none" fill-rule="evenodd">
        <path d="M14.4203706,0.970415189 L23.0003669,9.56394742 C24.333211,10.8978928 24.333211,13.069059 23.0003669,14.4040058 L14.4203706,22.9975381 C13.7764459,23.6434801 12.9175464,24 12.0046531,24 C11.0917599,24 10.2338603,23.6434801 9.58793584,22.9975381 L1.00793947,14.4040058 C0.981942513,14.3769664 0.955945554,14.3489255 0.933948127,14.3208846 C0.238029531,13.4476111 -0.093931638,12.3900689 0.0230546777,11.4196537 C0.114044034,10.6575422 0.478001461,9.9875652 1.04793479,9.52288754 L9.58793584,0.970415189 C10.8787848,-0.32347173 13.1315213,-0.32347173 14.4203706,0.970415189 Z M11.0017705,2.38648028 L2.42177409,10.9800125 C2.3917776,11.0100563 2.35978134,11.0380972 2.32578532,11.0651367 C2.14680625,11.2033382 2.03881889,11.4026288 2.00882239,11.6590027 C1.95782836,12.0806176 2.12780848,12.5903609 2.46476906,13.0300021 L11.0017705,21.581473 C11.5367079,22.1172543 12.4715985,22.1172543 13.0065359,21.581473 L21.5865323,12.9879407 C22.1394676,12.4341331 22.1394676,11.5328187 21.5865323,10.9800125 L13.0065359,2.38648028 C12.4715985,1.84869602 11.5367079,1.84969748 11.0017705,2.38648028 Z M14.7113365,8.2586 L17.7109857,11.2586 C18.1019399,11.6496 18.1019399,12.2816 17.7109857,12.6726 L14.7113365,15.6726 C14.5163593,15.8676 14.2603893,15.9656 14.0044192,15.9656 C13.7484492,15.9656 13.4924791,15.8676 13.2975019,15.6726 C12.9065476,15.2816 12.9065476,14.6496 13.2975019,14.2586 L14.5892379,12.96535 L9.02100215,12.9656 L9.00500402,14.9656 C9.00500402,15.5176 8.5580563,15.9656 8.00512098,15.9656 C7.45218566,15.9656 7.00523794,15.5176 7.00523794,14.9656 L7.00523794,12.9826 C7.00523794,11.8706 7.90913221,10.9656 9.02100215,10.9656 L14.5892379,10.96535 L13.2975019,9.6726 C12.9065476,9.2816 12.9065476,8.6496 13.2975019,8.2586 C13.6884562,7.8676 14.3203823,7.8676 14.7113365,8.2586 Z"  id="Combined-Shape" fill="#292929"></path>
    </g>
</svg>

<?xml version="1.0" encoding="UTF-8"?>
<svg width="24px" height="24px" viewBox="0 0 24 24" xmlns="http://www.w3.org/2000/svg" fill-rule="evenodd" clip-rule="evenodd" stroke-linejoin="round" stroke-miterlimit="1.41"><path d="M12 24a3.4 3.4 0 0 1-2.41-1L1 14.4a3.97 3.97 0 0 1-.98-2.98c.07-.74.44-1.42 1.02-1.9L9.59.97a3.5 3.5 0 0 1 4.83 0L23 9.57a3.45 3.45 0 0 1 0 4.83L14.42 23c-.64.64-1.5 1-2.42 1zM2.46 13.03L11 21.58c.54.54 1.47.54 2 0l8.59-8.6c.55-.54.55-1.45 0-2L13 2.38a1.45 1.45 0 0 0-2 0l-8.59 8.6-.1.09a.84.84 0 0 0-.31.59c-.05.4.1.87.45 1.37z"/><path d="M14.59 12.97H9.02l-.02 2a1 1 0 0 1-1 1 1 1 0 0 1-1-1v-1.99c0-1.1.9-2.01 2.02-2.01h5.57l-1.3-1.3a1 1 0 0 1 .71-1.7 1 1 0 0 1 .71.29l3 3a1 1 0 0 1 0 1.41l-3 3a1 1 0 0 1-1.41 0 1 1 0 0 1 0-1.41l1.29-1.3z"/></svg>
